dist/svg/rename.svg

<!-- Generated by Trend Micro Style Portal -->
<svg version="1.1" xmlns="http://www.w3.org/2000/svg" width="16" height="16" viewBox="0 0 16 16">
  <title>rename</title>
  <path fill="rgb(34,34,34)" d="M3.5 12.8l1.1-3h3.9l1 3.2h1.5v-2.6l-3.1-8.4h-1.9l-4 11-1 0.1v0.9h3.8v-0.9l-1.1-0.1-0.2-0.2zM6.4 4.4l1.6 4.4h-3.1l1.5-4.4zM13 2v12h2v1h-5v-1h2v-12h-2v-1h5v1c0 0-2 0-2 0z"></path>
</svg>

<svg width="16" height="16" viewBox="0 0 16 16" fill="rgb(34, 34, 34)" xmlns="http://www.w3.org/2000/svg"><title>rename</title><path d="M3.5 12.8L4.6 9.8H8.5L9.5 13H11V10.4L7.9 2H6L2 13L1 13.1V14H4.8V13.1L3.7 13L3.5 12.8ZM6.4 4.4L8 8.8H4.9L6.4 4.4ZM13 2V14H15V15H10V14H12V2H10V1H15V2H13Z" fill="rgb(34, 34, 34)" fill-opacity="1.00"/></svg>
